X:1
T:Title
%%score { 1 | 2 }
L:1/8
M:4/4
K:Eb
V:1 treble nm="Grand Piano"
V:2 bass 
V:1
 z4 z2[Q:1/4=100] [EG][FA] | [GB]2 GF E2 G[FA] | [GB]2 [Ge]>[Ge] [Ge]3 [GB] | [GB]2 [FA]G B2 BG | %4
[M:3/4] [DF]6 |[M:1/4] [EG][FA] |[M:4/4] [GB]2 GF E2 G[FA] | [GB]2 [Ge]>[Ge] [Ge]3 B | %8
 c2 BA G2 [B,EG][A,DF] |[M:3/4] [G,E]6 |[M:1/4] [B,GB]2 |[M:4/4] [Ge]2 [Ge][Ge] d2 dd | %12
 c2 cc [EGB]2 [B,GB]2 | [B,FA]2 [B,FA][B,FA] [B,EG]2 [B,F][=A,E] | [B,DB]6 [DAB]2 | %15
 [EGB]2 [B,EG][A,EF] [G,E]2 [B,EG][B,FA] | [EGB]2 [Ge]>[Ge] [Ge]3 B | c2 BA G2 [EG][DF] | %18
[M:7/4] E6 z2 z2 z4 |] %19
V:2
 z4 z2 [E,B,][E,B,] | [E,E]2 [E,B,E][E,A,E] [E,G,]2 [E,B,E][E,B,] | %2
 [E,E]2 [E,B,]>[E,B,] [E,B,]3 [E,E] | [E,E]2 [D,B,][E,B,E] [E,G,E]2 [E,G,E][E,B,E] | %4
[M:3/4] [B,,B,]6 |[M:1/4] [E,B,]2 |[M:4/4] [E,E]2 [E,B,E][E,A,E] [E,G,]2 [E,B,E][E,B,] | %7
 [E,E]2 [E,B,]>[E,B,] [E,B,]3 [G,B,E] | [A,E]2 [G,B,E][A,CE] [B,E]2 B,,B,, |[M:3/4] E,6 | %10
[M:1/4] E,2 |[M:4/4] [E,B,]2 [E,B,][E,B,][K:treble] [B,F]2 [B,F][B,F] | %12
 [A,EA]2 [A,EA][A,EA][K:bass] E,2 E,2 | D,2 D,D, E,2 D,C, | B,,6 B,,2 | E,2 E,E, E,2 E,E, | %16
 E,2 [E,B,]>[E,B,] [E,B,]3 [G,B,E] | [A,E]2 [G,B,E][A,CE] [B,E]2 [B,,B,][B,,A,] | %18
[M:7/4] [E,G,]6 z2 z2 z4 |] %19

